public/piece/anarcandy/wR.svg

<svg xmlns="http://www.w3.org/2000/svg" width="512" height="512" fill="none"><path fill="#00173C" d="M328.469 488.071h-197.29c-7.831 0-14.179-7.144-14.179-15.957V83.292c0-6.25 2.925-12.04 7.698-15.236l40.073-26.836A30.869 30.869 0 0 1 181.948 36h193.331c11.366 0 20.58 9.214 20.58 20.58v352.47c0 6.372-2.033 12.533-5.73 17.36l-37.79 49.349c-5.986 7.817-14.701 12.312-23.87 12.312Z"/><path fill="#FF9CAE" d="M375.002 421.131c3.774-4.849 5.855-11.076 5.855-17.522V57.88c0-5.683-4.607-10.29-10.29-10.29H191.628c-5.37 0-10.606 1.68-14.972 4.806l-35.988 25.758c-5.146 3.499-7.784 9.002-7.784 15.292v368.031c0 5.875 4.232 10.638 9.453 10.638h181.056c6.662 0 13.015-3.165 17.494-8.715l34.115-42.269Z"/><path fill="#00173C" d="M319.149 89.167H151.168c-3.893 0-5.875-5.264-3.166-8.41 4.151-4.823 10.214-4.89 16.181-4.89h154.864c6.566 0 12.968-2.31 18.312-6.603l10.972-8.818c5.642-4.534 12.901-8.426 19.689-5.911l.871.323c3.734 1.382 4.845 5.382 1.758 7.896l-16.464 13.112c-10.451 9.903-12.464 17.156-12.464 28.248v343.321c0 6.181-2.123 11.751-7.2 14.109-3.571 1.657-7.494-1.297-7.494-5.644V98.032c0-4.896-3.527-8.865-7.878-8.865Z"/><path fill="#00173C" d="m183.383 60.316 5.249-3.36a15.433 15.433 0 0 1 8.321-2.434h45.218c4.015 0 5.654 5.161 2.374 7.478l-4.349 3.071a15.432 15.432 0 0 1-8.904 2.828h-45.69c-4.112 0-5.682-5.366-2.219-7.583ZM268.929 57.832l-3.45 2.718c-3.068 2.417-1.359 7.349 2.548 7.349h48.509c3.203 0 6.327-.996 8.938-2.851l4.3-3.054c3.269-2.322 1.626-7.472-2.384-7.472h-48.91a15.434 15.434 0 0 0-9.551 3.31Z"/><path fill="#810F23" d="M210.956 298.318a36.692 36.692 0 0 1-4.231-5.569c-1.188-2.079-2.079-4.157-2.673-6.236a26.261 26.261 0 0 0-.668 2.895l-.891 2.673-.891 2.227a7.546 7.546 0 0 1-1.782 2.005c1.188 1.039 2.079 1.856 2.673 2.45a10.361 10.361 0 0 1 1.559 2.005l1.113 2.227c.446.891 1.114 2.153 2.005 3.786a81.404 81.404 0 0 1 4.677 9.578 55.318 55.318 0 0 1 2.673 9.355 55.81 55.81 0 0 1-5.345 3.563c-1.931 1.04-3.787 1.782-5.569 2.228-1.188 9.057-2.821 17.744-4.9 26.059-2.079 8.315-4.454 16.037-7.127 23.164 4.454 4.009 9.28 7.128 14.477 9.355a51.237 51.237 0 0 0 16.26 4.009l.223-87.756a31.409 31.409 0 0 1-6.237-3.341c-2.079-1.485-3.861-3.044-5.346-4.677ZM190.911 354.446a359.958 359.958 0 0 0 5.122-23.387c-2.078-4.455-4.528-8.909-7.35-13.364-2.821-4.455-6.088-8.686-9.8-12.696-1.485 7.87-3.415 15.22-5.791 22.051-2.524 6.83-5.494 12.918-8.909 18.264a176.694 176.694 0 0 0 4.454 9.132 72.165 72.165 0 0 0 4.901 8.018 78.007 78.007 0 0 0 5.345 6.905 78.462 78.462 0 0 0 5.791 6.459c2.227-6.682 4.306-13.809 6.237-21.382ZM288.022 261.79c.594-1.337.891-2.822.891-4.455v-7.35h10.468a173.975 173.975 0 0 0-4.009-14.032 364.084 364.084 0 0 0-4.678-13.587c-3.415 6.088-6.236 12.993-8.463 20.714-2.228 7.721-3.564 16.185-4.01 25.391 1.485 0 2.896-.222 4.232-.668 1.188-.594 2.302-1.41 3.341-2.45a14.455 14.455 0 0 0 2.228-3.563ZM282.453 292.526a8.59 8.59 0 0 0-4.232-1.113 96.58 96.58 0 0 0 1.782 13.364 109.249 109.249 0 0 0 2.896 12.473 89.138 89.138 0 0 0 3.786 11.136 89.726 89.726 0 0 0 4.9 10.023 175.683 175.683 0 0 0 4.455-13.364 188.169 188.169 0 0 0 3.564-14.477l-10.691-.446v-7.573c0-1.336-.297-2.672-.891-4.009a14.455 14.455 0 0 0-2.228-3.563c-1.039-1.04-2.153-1.857-3.341-2.451Z"/><path fill="#810F23" d="M268.867 262.235a9.79 9.79 0 0 0 2.672 3.786c.446-5.197 1.188-10.097 2.228-14.7.891-4.751 2.004-9.206 3.341-13.364 1.336-4.306 2.895-8.315 4.677-12.027 1.782-3.712 3.787-7.053 6.014-10.023-2.673-6.088-5.791-11.805-9.355-17.151-3.564-5.494-7.424-10.542-11.582-15.145-3.118 9.206-5.791 19.452-8.018 30.737-2.376 11.136-4.084 23.09-5.123 35.859l1.782-.222v60.137l-1.782-.222a236.656 236.656 0 0 0 2.005 18.264 211.705 211.705 0 0 0 2.895 17.373 164.385 164.385 0 0 0 3.786 15.814 184.846 184.846 0 0 0 4.455 14.477 124.835 124.835 0 0 0 11.805-14.7 107.507 107.507 0 0 0 9.132-16.705c-2.227-2.97-4.232-6.311-6.014-10.023a92.923 92.923 0 0 1-4.677-11.805 125.406 125.406 0 0 1-3.341-13.364c-1.04-4.751-1.782-9.726-2.228-14.923a9.8 9.8 0 0 0-2.672 3.787 10.32 10.32 0 0 0-1.114 4.677v7.35h-6.459v-60.137h6.459v7.573c0 1.484.371 3.044 1.114 4.677ZM188.238 252.658a35.142 35.142 0 0 1 10.246-2.896c-1.337-12.621-3.119-24.426-5.346-35.414-2.376-11.137-5.197-21.234-8.464-30.292-3.861 4.009-7.499 8.538-10.914 13.587-3.563 4.9-6.756 10.394-9.577 16.482 3.712 5.642 6.904 12.25 9.577 19.823 2.525 7.424 4.381 15.443 5.569 24.055a33.821 33.821 0 0 1 8.909-5.345ZM163.069 290.745a16.325 16.325 0 0 0-4.454-1.114c-.149-1.336 0-2.524.445-3.564a7.064 7.064 0 0 1 2.005-2.673 6.614 6.614 0 0 1 3.118-1.781c1.039-.446 2.153-.594 3.341-.446 0-2.821.52-5.568 1.559-8.241.891-2.673 2.153-4.974 3.786-6.905a328.413 328.413 0 0 0-1.559-12.695 142.458 142.458 0 0 0-2.673-12.028 155.344 155.344 0 0 0-3.786-10.914c-1.336-3.563-2.821-6.83-4.455-9.8-3.266 8.909-5.791 18.413-7.572 28.51-1.931 9.948-2.896 20.268-2.896 30.96 0 10.394.891 20.417 2.673 30.068 1.782 9.652 4.232 18.932 7.35 27.842 2.97-5.049 5.568-10.914 7.796-17.596 2.078-6.83 3.563-14.181 4.454-22.05-.445-1.188-1.113-2.302-2.004-3.341-1.04-1.04-2.153-1.857-3.341-2.451a17.637 17.637 0 0 0-3.787-1.781ZM214.297 255.999a34.079 34.079 0 0 0 8.242 2.895l-.223-92.211a44.34 44.34 0 0 0-15.814 3.341c-5.197 1.93-10.097 4.752-14.7 8.464 1.93 4.9 3.712 10.171 5.345 15.814a373.354 373.354 0 0 1 4.232 17.373 306.934 306.934 0 0 1 3.118 18.709 403.06 403.06 0 0 1 2.228 20.269 43.74 43.74 0 0 0 7.572 5.346ZM230.78 166.906v92.656c2.524-.148 5.122-.594 7.795-1.336a27.463 27.463 0 0 0 7.128-3.787 236.793 236.793 0 0 1 2.227-21.159c.891-6.831 2.005-13.364 3.341-19.601 1.188-6.385 2.598-12.398 4.232-18.041 1.485-5.791 3.192-11.211 5.123-16.259-4.455-3.712-9.132-6.608-14.032-8.687a52.387 52.387 0 0 0-15.814-3.786ZM248.375 329.945a273.103 273.103 0 0 1-2.004-19.6 43.098 43.098 0 0 1-7.573.223 37.688 37.688 0 0 1-8.018-1.337l-.223 84.861c5.494-.742 10.839-2.227 16.037-4.454a64.288 64.288 0 0 0 14.477-9.132c-1.93-4.752-3.638-9.801-5.123-15.146a201.55 201.55 0 0 1-4.232-16.928 227.503 227.503 0 0 1-3.341-18.487ZM294.035 294.977v11.136h22.274v-4.455h-8.91v-5.791h-4.677v5.791h-4.009v-6.681h-4.678ZM294.035 287.404v4.677h22.274v-4.677h-22.274Z"/><path fill="#810F23" fill-rule="evenodd" d="M294.035 277.158v6.905h22.273v-6.905c0-.891-.148-1.782-.445-2.673a2.79 2.79 0 0 0-.668-1.113l-1.114-1.114c-.891-.594-2.004-1.04-3.341-1.337-1.336-.445-3.192-.668-5.568-.668-.891 0-1.633.075-2.227.223a11.3 11.3 0 0 0-2.228.223c-1.336.148-2.524.519-3.563 1.113-1.04.594-1.856 1.263-2.45 2.005-.446.891-.669 2.005-.669 3.341Zm17.373 2.45h-12.473l.001-1.336c0-1.188.445-2.079 1.336-2.673 1.039-.446 2.673-.668 4.9-.668 1.93 0 3.267.074 4.009.222.891.297 1.411.669 1.559 1.114.149.149.297.446.446.891.148.297.222.668.222 1.114v1.336Z" clip-rule="evenodd"/><path fill="#810F23" d="M294.035 255.776v12.25h22.274v-12.473h-4.901v8.018h-4.454v-7.35h-4.678v7.35h-3.563v-7.795h-4.678Z"/></svg>

<svg width="512" height="512" viewBox="0 0 512 512" fill="none" xmlns="http://www.w3.org/2000/svg">
<path d="M328.469 488.071H131.179C123.348 488.071 117 480.927 117 472.114V83.2916C117 77.0413 119.925 71.2527 124.698 68.0563L164.771 41.2203C169.853 37.817 175.831 36 181.948 36H375.279C386.645 36 395.859 45.214 395.859 56.58V409.05C395.859 415.422 393.826 421.583 390.129 426.41L352.339 475.759C346.353 483.576 337.638 488.071 328.469 488.071Z" fill="#00173C"/>
<path d="M375.002 421.131C378.776 416.282 380.857 410.055 380.857 403.609V57.8801C380.857 52.1971 376.25 47.5901 370.567 47.5901H191.628C186.258 47.5901 181.022 49.2706 176.656 52.3961L140.668 78.154C135.522 81.6529 132.884 87.156 132.884 93.4464V461.477C132.884 467.352 137.116 472.115 142.337 472.115H323.393C330.055 472.115 336.408 468.95 340.887 463.4L375.002 421.131Z" fill="#FF9CAE"/>
<path d="M319.149 89.1674H151.168C147.275 89.1674 145.293 83.903 148.002 80.7563C152.153 75.9336 158.216 75.8662 164.183 75.8662H319.047C325.613 75.8662 332.015 73.5579 337.359 69.2638L348.331 60.4463C353.973 55.9121 361.232 52.0204 368.02 54.5346L368.891 54.8575C372.625 56.2404 373.736 60.2401 370.649 62.7539L354.185 75.8662C343.734 85.7687 341.721 93.0224 341.721 104.114V447.435C341.721 453.616 339.598 459.186 334.521 461.544C330.95 463.201 327.027 460.247 327.027 455.9V98.0319C327.027 93.1361 323.5 89.1674 319.149 89.1674Z" fill="#00173C"/>
<path d="M183.383 60.3163L188.632 56.9569C191.116 55.3669 194.003 54.5219 196.953 54.5219H242.171C246.186 54.5219 247.825 59.6834 244.545 61.9999L240.196 65.0714C237.592 66.9111 234.481 67.8989 231.292 67.8989H185.602C181.49 67.8989 179.92 62.5331 183.383 60.3163Z" fill="#00173C"/>
<path d="M268.929 57.8323L265.479 60.5497C262.411 62.967 264.12 67.8989 268.027 67.8989H316.536C319.739 67.8989 322.863 66.9025 325.474 65.0477L329.774 61.9936C333.043 59.6716 331.4 54.5219 327.39 54.5219H278.48C275.015 54.5219 271.651 55.688 268.929 57.8323Z" fill="#00173C"/>
<path d="M210.956 298.318C209.323 296.536 207.912 294.68 206.725 292.749C205.537 290.67 204.646 288.592 204.052 286.513C203.755 287.552 203.532 288.517 203.384 289.408L202.493 292.081L201.602 294.308C201.156 295.051 200.562 295.719 199.82 296.313C201.008 297.352 201.899 298.169 202.493 298.763C203.087 299.357 203.606 300.025 204.052 300.768L205.165 302.995C205.611 303.886 206.279 305.148 207.17 306.781C208.952 309.9 210.511 313.092 211.847 316.359C213.035 319.477 213.926 322.595 214.52 325.714C212.738 327.05 210.956 328.238 209.175 329.277C207.244 330.317 205.388 331.059 203.606 331.505C202.418 340.562 200.785 349.249 198.706 357.564C196.627 365.879 194.252 373.601 191.579 380.728C196.033 384.737 200.859 387.856 206.056 390.083C211.253 392.31 216.673 393.647 222.316 394.092L222.539 306.336C220.311 305.445 218.232 304.331 216.302 302.995C214.223 301.51 212.441 299.951 210.956 298.318Z" fill="#810F23"/>
<path d="M190.911 354.446C192.841 346.873 194.549 339.077 196.033 331.059C193.955 326.604 191.505 322.15 188.683 317.695C185.862 313.24 182.595 309.009 178.883 304.999C177.398 312.869 175.468 320.219 173.092 327.05C170.568 333.88 167.598 339.968 164.183 345.314C165.668 348.581 167.153 351.625 168.637 354.446C170.122 357.267 171.756 359.94 173.538 362.464C175.171 364.84 176.953 367.142 178.883 369.369C180.665 371.596 182.595 373.749 184.674 375.828C186.901 369.146 188.98 362.019 190.911 354.446Z" fill="#810F23"/>
<path d="M288.022 261.79C288.616 260.453 288.913 258.968 288.913 257.335V249.985H299.381C298.193 245.085 296.857 240.407 295.372 235.953C293.887 231.35 292.328 226.821 290.694 222.366C287.279 228.454 284.458 235.359 282.231 243.08C280.003 250.801 278.667 259.265 278.221 268.471C279.706 268.471 281.117 268.249 282.453 267.803C283.641 267.209 284.755 266.393 285.794 265.353C286.685 264.314 287.428 263.126 288.022 261.79Z" fill="#810F23"/>
<path d="M282.453 292.526C281.117 291.784 279.706 291.413 278.221 291.413C278.518 296.016 279.112 300.471 280.003 304.777C280.746 309.083 281.711 313.241 282.899 317.25C283.938 321.11 285.2 324.823 286.685 328.386C288.17 331.95 289.803 335.291 291.585 338.409C293.219 334.103 294.704 329.648 296.04 325.045C297.376 320.442 298.564 315.616 299.604 310.568L288.913 310.122V302.549C288.913 301.213 288.616 299.877 288.022 298.54C287.428 297.204 286.685 296.016 285.794 294.977C284.755 293.937 283.641 293.12 282.453 292.526Z" fill="#810F23"/>
<path d="M268.867 262.235C269.461 263.72 270.352 264.982 271.539 266.021C271.985 260.824 272.727 255.924 273.767 251.321C274.658 246.57 275.771 242.115 277.108 237.957C278.444 233.651 280.003 229.642 281.785 225.93C283.567 222.218 285.572 218.877 287.799 215.907C285.126 209.819 282.008 204.102 278.444 198.756C274.88 193.262 271.02 188.214 266.862 183.611C263.744 192.817 261.071 203.063 258.844 214.348C256.468 225.484 254.76 237.438 253.721 250.207L255.503 249.985V310.122L253.721 309.9C254.166 316.136 254.835 322.224 255.726 328.164C256.468 334.103 257.433 339.894 258.621 345.537C259.66 351.031 260.923 356.302 262.407 361.351C263.744 366.399 265.229 371.225 266.862 375.828C271.168 371.225 275.103 366.325 278.667 361.128C282.231 355.782 285.275 350.214 287.799 344.423C285.572 341.453 283.567 338.112 281.785 334.4C280.003 330.688 278.444 326.753 277.108 322.595C275.771 318.289 274.658 313.834 273.767 309.231C272.727 304.48 271.985 299.505 271.539 294.308C270.352 295.348 269.461 296.61 268.867 298.095C268.124 299.58 267.753 301.139 267.753 302.772V310.122H261.294V249.985H267.753V257.558C267.753 259.042 268.124 260.602 268.867 262.235Z" fill="#810F23"/>
<path d="M188.238 252.658C191.505 251.173 194.92 250.207 198.484 249.762C197.147 237.141 195.365 225.336 193.138 214.348C190.762 203.211 187.941 193.114 184.674 184.056C180.813 188.065 177.175 192.594 173.76 197.643C170.197 202.543 167.004 208.037 164.183 214.125C167.895 219.767 171.087 226.375 173.76 233.948C176.285 241.372 178.141 249.391 179.329 258.003C182.001 255.776 184.971 253.994 188.238 252.658Z" fill="#810F23"/>
<path d="M163.069 290.745C161.584 290.151 160.099 289.779 158.615 289.631C158.466 288.295 158.615 287.107 159.06 286.067C159.505 285.028 160.174 284.137 161.065 283.394C161.956 282.504 162.995 281.91 164.183 281.613C165.222 281.167 166.336 281.019 167.524 281.167C167.524 278.346 168.044 275.599 169.083 272.926C169.974 270.253 171.236 267.952 172.869 266.021C172.424 261.715 171.904 257.483 171.31 253.326C170.568 249.168 169.677 245.159 168.637 241.298C167.45 237.438 166.187 233.8 164.851 230.384C163.515 226.821 162.03 223.554 160.396 220.584C157.13 229.493 154.605 238.997 152.824 249.094C150.893 259.042 149.928 269.362 149.928 280.054C149.928 290.448 150.819 300.471 152.601 310.122C154.383 319.774 156.833 329.054 159.951 337.964C162.921 332.915 165.519 327.05 167.747 320.368C169.825 313.538 171.31 306.187 172.201 298.318C171.756 297.13 171.088 296.016 170.197 294.977C169.157 293.937 168.044 293.12 166.856 292.526C165.668 291.784 164.406 291.19 163.069 290.745Z" fill="#810F23"/>
<path d="M214.297 255.999C216.97 257.335 219.717 258.3 222.539 258.894L222.316 166.683C216.822 166.832 211.55 167.945 206.502 170.024C201.305 171.954 196.405 174.776 191.802 178.488C193.732 183.388 195.514 188.659 197.147 194.302C198.632 199.796 200.043 205.587 201.379 211.675C202.567 217.614 203.606 223.851 204.497 230.384C205.388 236.918 206.131 243.674 206.725 250.653C209.1 252.732 211.625 254.514 214.297 255.999Z" fill="#810F23"/>
<path d="M230.78 166.906V259.562C233.304 259.414 235.902 258.968 238.575 258.226C241.099 257.335 243.475 256.073 245.703 254.439C246.148 247.163 246.891 240.11 247.93 233.28C248.821 226.449 249.935 219.916 251.271 213.679C252.459 207.294 253.869 201.281 255.503 195.638C256.988 189.847 258.695 184.427 260.626 179.379C256.171 175.667 251.494 172.771 246.594 170.692C241.545 168.613 236.274 167.351 230.78 166.906Z" fill="#810F23"/>
<path d="M248.375 329.945C247.484 323.56 246.816 317.027 246.371 310.345C243.847 310.642 241.322 310.716 238.798 310.568C236.125 310.419 233.452 309.974 230.78 309.231L230.557 394.092C236.051 393.35 241.396 391.865 246.594 389.638C251.791 387.262 256.616 384.218 261.071 380.506C259.141 375.754 257.433 370.705 255.948 365.36C254.315 359.866 252.904 354.223 251.716 348.432C250.38 342.493 249.266 336.33 248.375 329.945Z" fill="#810F23"/>
<path d="M294.035 294.977V306.113H316.309V301.658H307.399V295.867H302.722V301.658H298.713V294.977H294.035Z" fill="#810F23"/>
<path d="M294.035 287.404V292.081H316.309V287.404H294.035Z" fill="#810F23"/>
<path fill-rule="evenodd" clip-rule="evenodd" d="M294.035 277.158V284.063H316.308V277.158C316.308 276.267 316.16 275.376 315.863 274.485C315.715 274.04 315.492 273.669 315.195 273.372L314.081 272.258C313.19 271.664 312.077 271.218 310.74 270.921C309.404 270.476 307.548 270.253 305.172 270.253C304.281 270.253 303.539 270.328 302.945 270.476C302.202 270.476 301.46 270.55 300.717 270.699C299.381 270.847 298.193 271.218 297.154 271.812C296.114 272.406 295.298 273.075 294.704 273.817C294.258 274.708 294.035 275.822 294.035 277.158ZM311.408 279.608H298.935L298.936 278.272C298.936 277.084 299.381 276.193 300.272 275.599C301.311 275.153 302.945 274.931 305.172 274.931C307.102 274.931 308.439 275.005 309.181 275.153C310.072 275.45 310.592 275.822 310.74 276.267C310.889 276.416 311.037 276.713 311.186 277.158C311.334 277.455 311.408 277.826 311.408 278.272V279.608Z" fill="#810F23"/>
<path d="M294.035 255.776V268.026H316.309V255.553H311.408V263.571H306.954V256.221H302.276V263.571H298.713V255.776H294.035Z" fill="#810F23"/>
</svg>
